X:1
T:Game of Thrones for Accordion
T:Game of Thrones for Accordion
T: Ramin Djawadi
C:Ramin Djawadi
%%score { 1 | 2 }
L:1/8
Q:1/4=168
M:3/4
K:Eb
V:1 treble nm="Accordion" snm="Acc."
V:2 bass 
V:1
"^\n\n\n" G2 C2 EF | G2 C2 EF | G2 C2 EF | G2 C2 EF | G2 C2 =EF | G2 C2 =EF | G2 C2 =EF | %7
 G2 C2 =EF || G6 | C6 | EF G4 | C4 EF | D2 G,2 B,C | D2 G,2 B,C | D2 G,2 B,C | D2 .G,2 .B,2 | F6 | %17
 B,6 | ED F4 | B,4 ED | C2 F,2 A,B, | C2 F,2 A,B, | C2 F,2 A,B, | C2 .F,2 .A,2 | G6 | C6 | EF G4 | %27
 C4 EF | D2 G,2 B,C | D2 G,2 B,C | D2 G,2 B,C | D2 .G,2 .B,2 | F6 | B,6 | ED F4 | B,4 ED | %36
 C2 G,2 A,B, | C2 G,2 A,B, | C2 G,2 A,B, | C2 .G,2 .C2 | G6 | C6 | (EF G4) | (C4 EF) | (D4 B,C) | %45
 (D4 B,C) | (D4 B,C) | (D2 .B,2) .D2 | F6 | B,6 | D4 E2 | D6 | C2 G,2 A,B, | C2 G,2 A,B, | %54
 C2 G,2 A,B, | C2 G,2 A,B, | C2 .C2 .C2 | c2 E2 AB | c2 E2 Ac | B2 E2 GA | B2 E2 GB | A2 C2 FG | %62
 A2 C2 GA | G2 C2 EF | G2 C2 EF | E2 A,2 CD | E2 A,2 CD | E2 A,2 E2 | F2 E2 F2 | G2 C2 EF | %70
 G2 C2 EF | G2 C2 EF | G2 A2 B2 | c2 E2 AB | c2 E2 Ac | B2 E2 GA | B2 E2 G2 | A2 C2 FG | A2 C2 GA | %79
 G2 C2 EF | G2 C2 D2 | E2 A,2 CD | E2 A,2 CD | E2 A,2 CD | E2 A,2 E2 | D2 G,2 D2 | C2 G,2 A,B, | %87
 C2 G,2 A,B, | C2 G,2 A,B, | C2 G,2 A,B, | C2 G2 AB | c2 G2 AB | c2 G2 AB | !fermata!c6 |] %94
V:2
"Cm" (C,6 | (C,6) | (C,6) | C,6) |"C" (C,6 | (C,6) | (C,6) | C,6) ||"Cm" C,2 C2 C2 | C,2 C2 C2 | %10
 C,2 C2 C2 | C,2 C2 C2 |"Gm" G,,2 G,2 G,2 | G,,2 G,2 G,2 | G,,2 G,2 G,2 | G,,2 G,2 G,2 | %16
"B" B,,2 B,2 B,2 | B,,2 B,2 B,2 | B,,2 B,2 B,2 | B,,2 B,2 B,2 |"Fm" F,,2 F,2 F,2 | F,,2 F,2 F,2 | %22
 F,,2 F,2 F,2 | F,,2 F,2 F,2 |"Cm" C,2 C2 C2 | C,2 C2 C2 | C,2 C2 C2 | C,2 C2 C2 | %28
"Gm" G,,2 G,2 G,2 | G,,2 G,2 G,2 | G,,2 G,2 G,2 | G,,2 G,2 G,2 |"B" B,,2 B,2 B,2 | B,,2 B,2 B,2 | %34
 B,,2 B,2 B,2 | B,,2 B,2 B,2 |"Cm" C,2 C2 C2 | C,2 C2 C2 | C,2 C2 C2 | C,2 C2 C2 | C,2 C2 C2 | %41
 C,2 C2 C2 | C,2 C2 C2 | C,2 C2 C2 |"Gm" G,,2 G,2 G,2 | G,,2 G,2 G,2 | G,,2 G,2 G,2 | %47
 G,,2 G,2 G,2 |"B" B,,2 B,2 B,2 | B,,2 B,2 B,2 | B,,2 B,2 B,2 | B,,2 B,2 B,2 |"Cm" C,2 C2 C2 | %53
 C,2 C2 C2 | C,2 C2 C2 | C,2 C2 C2 | C,2 C2 C2 |"A" A,,2 A,2 A,2 | A,,2 A,2 A,2 |"E" E,,2 E,2 E,2 | %60
 E,,2 E,2 E,2 |"Fm" F,,2 F,2 F,2 | F,,2 F,2 F,2 |"Cm" C,2 C2 C2 | C,2 C2 C2 |"A" A,,2 A,2 A,2 | %66
 A,,2 A,2 A,2 |"Fm" F,,2 F,2 F,2 |"G7" G,,2 G,2 G,2 |"Cm" C,2 C2 C2 | C,2 C2 C2 | C,2 C2 C2 | %72
 C,2 C2 C2 |"A" A,,2 A,2 A,2 | A,,2 A,2 A,2 |"E" E,,2 E,2 E,2 | E,,2 E,2 E,2 |"Fm" F,,2 F,2 F,2 | %78
 F,,2 F,2 F,2 |"Cm" C,2 C2 C2 | C,2 C2 C2 |"A" A,,2 A,2 A,2 | A,,2 A,2 A,2 | A,,2 A,2 A,2 | %84
 A,,2 A,2 A,2 |"B" B,,2 B,2 B,2 |"Cm" C,2 C2 C2 | C,2 C2 C2 | C,2 C2 C2 | C,2 C2 C2 | z6 | z6 | %92
 z6 | z6 |] %94

